packages/icons/src/svg/dataprep.svg

<svg xmlns="http://www.w3.org/2000/svg" viewBox="0 0 32 32">
  <path d="M14.99976,6a3,3,0,1,0-3-3A3.00082,3.00082,0,0,0,14.99976,6Zm-7,2a2,2,0,1,0-2-2A1.99884,1.99884,0,0,0,7.99976,8Zm16-1.6a2,2,0,1,0-2-2A1.99883,1.99883,0,0,0,23.99976,6.4Zm5.02736,23.85L20.9724,15.74608a3.303,3.303,0,0,0-.9726-1.0078V11.5a1.89446,1.89446,0,0,0,2-1.75,1.8918,1.8918,0,0,0-2-1.75h-8a1.89184,1.89184,0,0,0-2,1.75,1.89449,1.89449,0,0,0,2,1.75v3.23828a3.28838,3.28838,0,0,0-.97168,1.0078L2.97144,30.25A1.07993,1.07993,0,0,0,3.99976,32h24A1.07943,1.07943,0,0,0,29.02712,30.25ZM7.11112,28,9.3328,24h13.335l2.22064,4Z"/>
</svg>

<svg xmlns="http://www.w3.org/2000/svg" viewBox="0 0 32 32">
	<path d="M15 6a3 3 0 1 0-3-3 3 3 0 0 0 3 3zM8 8a2 2 0 1 0-2-2 1.999 1.999 0 0 0 2 2zm16-1.6a2 2 0 1 0-2-2 1.999 1.999 0 0 0 2 2zm5.027 23.85l-8.055-14.504A3.303 3.303 0 0 0 20 14.738V11.5a1.894 1.894 0 0 0 2-1.75A1.892 1.892 0 0 0 20 8h-8a1.892 1.892 0 0 0-2 1.75 1.894 1.894 0 0 0 2 1.75v3.238a3.288 3.288 0 0 0-.972 1.008L2.971 30.25A1.08 1.08 0 0 0 4 32h24a1.08 1.08 0 0 0 1.027-1.75zM7.111 28l2.222-4h13.335l2.22 4z"/>
</svg>
